src/pos-icons/timer-3.svg

<svg height="24" viewBox="0 0 24 24" width="24" xmlns="http://www.w3.org/2000/svg"><path d="m20.87 14.37c-.14-.28-.37-.53-.63-.74-.28-.21-.61-.39-1.01-.53s-.85-.27-1.35-.38c-.35-.07-.64-.15-.88-.22-.22-.09-.4-.17-.54-.26s-.23-.19-.28-.3-.08-.24-.08-.39.03-.28.09-.41c.06-.14.15-.25.27-.34.12-.1.27-.18.45-.24s.4-.09.64-.09c.25 0 .45.03.66.11.19.07.35.17.48.29.13.13.22.26.31.42.04.16.08.32.08.49h1.95c0-.39-.08-.75-.24-1.09s-.39-.63-.69-.88-.66-.44-1.1-.59c-.42-.15-.91-.22-1.45-.22-.51 0-.98.07-1.39.21s-.77.33-1.06.57c-.29.22-.51.52-.67.84s-.23.65-.23 1.01c0 .37.08.68.23.96s.37.52.64.73.6.38.98.53.81.26 1.27.36c.39.08.71.17.95.26.23.09.43.19.57.29.13.1.22.24.27.34.05.12.07.25.07.4 0 .31-.13.56-.4.76-.28.2-.66.29-1.17.29-.22 0-.43-.02-.64-.08-.21-.05-.4-.13-.56-.24-.17-.11-.3-.26-.41-.44s-.17-.41-.18-.67h-1.89c0 .38.07.71.24 1.05.16.33.39.65.7.93.31.27.69.49 1.13.66.5.17 1 .24 1.6.24.53 0 1.01-.05 1.44-.18s.8-.32 1.11-.54c.31-.23.54-.51.71-.83s.25-.67.25-1.06c-.02-.39-.11-.74-.24-1.02m-9.26-1.4c-.16-.24-.36-.47-.61-.65-.26-.19-.57-.35-.94-.48.3-.14.57-.3.8-.5s.42-.41.57-.64.27-.46.34-.7c.08-.25.11-.5.11-.74 0-.55-.09-1.04-.28-1.46-.18-.42-.44-.77-.78-1.06-.32-.28-.73-.5-1.2-.64-.45-.13-.97-.2-1.53-.2-.55 0-1.06.1-1.52.24-.47.17-.87.4-1.2.69s-.6.63-.78 1.03c-.2.39-.29.83-.29 1.29h1.98c0-.26.05-.49.14-.69.08-.2.22-.38.38-.52.17-.14.36-.25.58-.33s.46-.11.73-.11c.61 0 1.06.15 1.36.46s.44.75.44 1.32c0 .27-.04.52-.12.72-.08.24-.21.43-.38.59s-.38.28-.63.37-.55.13-.89.13h-1.17v1.57h1.18c.34 0 .64.04.91.11.27.08.5.19.69.35s.34.38.44.61c.1.24.16.54.16.87 0 .62-.18 1.09-.53 1.4-.35.35-.84.5-1.45.5-.29 0-.56-.03-.8-.12-.24-.08-.44-.2-.61-.38-.17-.14-.3-.32-.39-.54s-.14-.46-.14-.72h-1.99c0 .55.11 1.03.31 1.45.22.42.5.77.87 1.05.36.26.77.49 1.24.63.47.13.96.21 1.48.21.57 0 1.09-.08 1.58-.23s.91-.38 1.26-.68c.36-.3.64-.67.84-1.1s.3-.93.3-1.48c0-.29-.04-.59-.11-.86-.08-.23-.19-.51-.35-.76z"/></svg>

<?xml version="1.0" encoding="UTF-8"?><!DOCTYPE svg PUBLIC "-//W3C//DTD SVG 1.1//EN" "http://www.w3.org/Graphics/SVG/1.1/DTD/svg11.dtd"><svg xmlns="http://www.w3.org/2000/svg" xmlns:xlink="http://www.w3.org/1999/xlink" version="1.1" id="mdi-timer-3" width="24" height="24" viewBox="0 0 24 24"><path d="M20.87,14.37C20.73,14.09 20.5,13.84 20.24,13.63C19.96,13.42 19.63,13.24 19.23,13.1C18.83,12.96 18.38,12.83 17.88,12.72C17.53,12.65 17.24,12.57 17,12.5C16.78,12.41 16.6,12.33 16.46,12.24C16.32,12.15 16.23,12.05 16.18,11.94C16.13,11.83 16.1,11.7 16.1,11.55C16.1,11.4 16.13,11.27 16.19,11.14C16.25,11 16.34,10.89 16.46,10.8C16.58,10.7 16.73,10.62 16.91,10.56C17.09,10.5 17.31,10.47 17.55,10.47C17.8,10.47 18,10.5 18.21,10.58C18.4,10.65 18.56,10.75 18.69,10.87C18.82,11 18.91,11.13 19,11.29C19.04,11.45 19.08,11.61 19.08,11.78H21.03C21.03,11.39 20.95,11.03 20.79,10.69C20.63,10.35 20.4,10.06 20.1,9.81C19.8,9.56 19.44,9.37 19,9.22C18.58,9.07 18.09,9 17.55,9C17.04,9 16.57,9.07 16.16,9.21C15.75,9.35 15.39,9.54 15.1,9.78C14.81,10 14.59,10.3 14.43,10.62C14.27,10.94 14.2,11.27 14.2,11.63C14.2,12 14.28,12.31 14.43,12.59C14.58,12.87 14.8,13.11 15.07,13.32C15.34,13.53 15.67,13.7 16.05,13.85C16.43,14 16.86,14.11 17.32,14.21C17.71,14.29 18.03,14.38 18.27,14.47C18.5,14.56 18.7,14.66 18.84,14.76C18.97,14.86 19.06,15 19.11,15.1C19.16,15.22 19.18,15.35 19.18,15.5C19.18,15.81 19.05,16.06 18.78,16.26C18.5,16.46 18.12,16.55 17.61,16.55C17.39,16.55 17.18,16.53 16.97,16.47C16.76,16.42 16.57,16.34 16.41,16.23C16.24,16.12 16.11,15.97 16,15.79C15.89,15.61 15.83,15.38 15.82,15.12H13.93C13.93,15.5 14,15.83 14.17,16.17C14.33,16.5 14.56,16.82 14.87,17.1C15.18,17.37 15.56,17.59 16,17.76C16.5,17.93 17,18 17.6,18C18.13,18 18.61,17.95 19.04,17.82C19.47,17.69 19.84,17.5 20.15,17.28C20.46,17.05 20.69,16.77 20.86,16.45C21.03,16.13 21.11,15.78 21.11,15.39C21.09,15 21,14.65 20.87,14.37M11.61,12.97C11.45,12.73 11.25,12.5 11,12.32C10.74,12.13 10.43,11.97 10.06,11.84C10.36,11.7 10.63,11.54 10.86,11.34C11.09,11.14 11.28,10.93 11.43,10.7C11.58,10.47 11.7,10.24 11.77,10C11.85,9.75 11.88,9.5 11.88,9.26C11.88,8.71 11.79,8.22 11.6,7.8C11.42,7.38 11.16,7.03 10.82,6.74C10.5,6.46 10.09,6.24 9.62,6.1C9.17,5.97 8.65,5.9 8.09,5.9C7.54,5.9 7.03,6 6.57,6.14C6.1,6.31 5.7,6.54 5.37,6.83C5.04,7.12 4.77,7.46 4.59,7.86C4.39,8.25 4.3,8.69 4.3,9.15H6.28C6.28,8.89 6.33,8.66 6.42,8.46C6.5,8.26 6.64,8.08 6.8,7.94C6.97,7.8 7.16,7.69 7.38,7.61C7.6,7.53 7.84,7.5 8.11,7.5C8.72,7.5 9.17,7.65 9.47,7.96C9.77,8.27 9.91,8.71 9.91,9.28C9.91,9.55 9.87,9.8 9.79,10C9.71,10.24 9.58,10.43 9.41,10.59C9.24,10.75 9.03,10.87 8.78,10.96C8.53,11.05 8.23,11.09 7.89,11.09H6.72V12.66H7.9C8.24,12.66 8.54,12.7 8.81,12.77C9.08,12.85 9.31,12.96 9.5,13.12C9.69,13.28 9.84,13.5 9.94,13.73C10.04,13.97 10.1,14.27 10.1,14.6C10.1,15.22 9.92,15.69 9.57,16C9.22,16.35 8.73,16.5 8.12,16.5C7.83,16.5 7.56,16.47 7.32,16.38C7.08,16.3 6.88,16.18 6.71,16C6.54,15.86 6.41,15.68 6.32,15.46C6.23,15.24 6.18,15 6.18,14.74H4.19C4.19,15.29 4.3,15.77 4.5,16.19C4.72,16.61 5,16.96 5.37,17.24C5.73,17.5 6.14,17.73 6.61,17.87C7.08,18 7.57,18.08 8.09,18.08C8.66,18.08 9.18,18 9.67,17.85C10.16,17.7 10.58,17.47 10.93,17.17C11.29,16.87 11.57,16.5 11.77,16.07C11.97,15.64 12.07,15.14 12.07,14.59C12.07,14.3 12.03,14 11.96,13.73C11.88,13.5 11.77,13.22 11.61,12.97Z" /></svg>
